web/src/assets/images/sidebar/ru.svg

<svg width="24" height="24" viewBox="0 0 24 24" fill="none" xmlns="http://www.w3.org/2000/svg">
    <mask id="mask0" maskUnits="userSpaceOnUse" x="1" y="6" width="22" height="13">
        <path d="M22.6206 18.5002H1.37933C1.16986 18.5002 1 18.3529 1 18.1713V6.32897C1 6.14731 1.16986 6 1.37933 6H22.6207C22.8301 6 23 6.14731 23 6.32897V18.1713C23 18.353 22.8301 18.5002 22.6206 18.5002Z" fill="#F5F5F5"/>
    </mask>
    <g mask="url(#mask0)">
        <path d="M23 10H1V6.3158C1 6.14141 1.16986 6 1.37933 6H22.6207C22.8301 6 23 6.14141 23 6.3158L23 10Z" fill="#F5F5F5"/>
        <path d="M22.6207 19H1.37933C1.16986 19 1 18.8232 1 18.6052V14H23V18.6052C23 18.8233 22.8301 19 22.6207 19Z" fill="#FF4B55"/>
        <path d="M23 10H1V14H23V10Z" fill="#41479B"/>
    </g>
</svg>

<svg width="24" height="24" fill="none" xmlns="http://www.w3.org/2000/svg"><mask id="a" maskUnits="userSpaceOnUse" x="1" y="6" width="22" height="13"><path d="M22.62 18.5H1.38c-.21 0-.38-.147-.38-.329V6.33C1 6.147 1.17 6 1.38 6h21.24c.21 0 .38.147.38.329v11.842c0 .182-.17.33-.38.33z" fill="#F5F5F5"/></mask><g mask="url(#a)"><path d="M23 10H1V6.316C1 6.14 1.17 6 1.38 6h21.24c.21 0 .38.141.38.316V10z" fill="#F5F5F5"/><path d="M22.62 19H1.38a.387.387 0 01-.38-.395V14h22v4.605c0 .218-.17.395-.38.395z" fill="#FF4B55"/><path d="M23 10H1v4h22v-4z" fill="#41479B"/></g></svg>
